X:1
T:Chi non sa
T:Chi non sa
T:Enrico Radesca di Foggio
T:Source : Canzonette a 2 voci---Libro III- Venetia---G.Vincenti---1616. Editor : André Vierendeels (03/04/14).
C:Enrico Radesca di Foggio
%%score [ 1 2 ] 3
L:1/8
Q:1/4=85
M:4/4
K:F
V:1 treble nm="Soprano" snm="S"
V:2 bass nm="Bass" snm="B"
V:3 bass nm="MusicXML Part"
V:1
 z2 d2 B2 c2 | d3 c B2 A2 | G3 A A4 | G8 | B2 BB B2 A2 | G4 _e4 | d2 d2 c4 | B8 | c2 c2 c2 cB | %9
w: Chi non sa|co- me si di-|pin- g'A- mo-|re,|co- me for- ma- te|gra- tia,|e bel- lez-|za,|com' ap- pa- ia di|
 A4 A2 ^F2- | F^F G2 A3 G | FE F4 G2 | G8 | F8 | B2 c2 d4- | d2 cB A4 | G4 z4 | F2 G2 A4- | %18
w: fuo- re, san-|* ta'ho- ne- sta che'n|no- bil cor s'ap-|prez-|za,|mi- ri voi|_ I- sa- bel-|la,|mi- ri voi|
 A2 GF E4 |[M:2/4] D4 :: z2 A2 |[M:4/4] B2 c2 d2 dc | B4 z Bcd | _e4 d4 | c2 B2 c4 | B4 z2 d2 | %26
w: _ I- sa- bel-|la,|e|con chia- rez- za, ve-|dra co- me si|pin- ga'e-|sian for- ma-|te, A-|
 c2 d3 B c2 | A2 A2 z2 d2 | c3 B A4 | G4 z2 B2 | A2 B3 G A2 | ^F2 F2 z2 d2 | c2 d3 B c2 | %33
w: mor, gra- tia, le-|lez- za, et|ho- ne- sta-|te, A-|mor, gra- tia, bel-|lez- za, A-|mor, gra- tia, bel-|
 A2 A2 z2 d2 | c6 B2 | A8 | G8 :| %37
w: lez- za et|ho- ne-|sta-|te.|
V:2
 z2 B,2 G,2 A,2 | B,3 A, G,2 F,2 | _E,2 C,2 D,4 | G,,8 | G,2 G,G, G,2 F,2 | _E,4 C,4 | D,3 E, F,4 | %7
w: Chi non sa|co- me si di|pin- g'A- mo-|re,|co- me for- ma- te|gra- tia,|e bel- lez-|
 B,,8 | F,2 F,2 F,2 F,G, | A,4 D,2 D,2- | D,D, G,2 F,3 E, | D,C, B,,4 B,,2 | C,8 | F,,8 | %14
w: za,|com' ap- pa- ia di|fuo- re, san-|* ta'ho- ne- sta cge'n|no- bil cor s'ap-|prez-|za,|
 G,,2 A,,2 B,,2 D,E, | ^F,2 G,2 D,4 | G,,4 B,,2 C,2 | D,6 C,B,, | A,,8 |[M:2/4] F,,4 :: z2 F,,2 | %21
w: mi- ri voi I- sa-|bel- * *|la, mi- ri|voi I- sa-|bel-|la,|e|
[M:4/4] G,2 F,2 B,2 B,A, | G,4 z F,_E,D, | C,4 B,,4 | F,2 G,2 F,4 | B,,4 z2 B,,2 | %26
w: con chia- rez- za, ve-|dra co- me si|pin- ga'e|sian for- ma-|te, A-|
 F,2 D,3 _E, C,2 | D,2 D,2 z2 B,,2 | C,2 C,2 D,4 | G,,4 z2 G,2 | F,2 D,3 _E, C,2 | %31
w: mor, bra- tia, bel-|lez- z et|ho- ne- sta-|te, A-|mor, gra- tia, bel-|
 D,2 D,2 z2 B,,2 | F,2 D,3 _E, C,2 | D,2 D,2 z2 B,,2 | C,4 G,,4 | D,8 | G,,8 :| %37
w: lezz- za, A-|mor, gra- tia, bel-|lez- za et|ho- ne-|sta-|te.|
V:3
 G,6 A,2 | B,3 A, G,2 F,2 | _E,2 C,2 D,4 | G,,8 | G,6 F,2 | _E,4 C,4 | D,4 F,4 | B,,8 | F,6 F,G, | %9
 A,4 D,4 | D,2 G,2 F,3 E, | D,C, B,,4 B,,2 | C,8 | F,,8 | G,,2 A,,2 B,,2 D,2 | ^F,2 G,2 D,4 | %16
 G,,4 B,,2 C,2 | D,6 C,B,, | A,,8 |[M:2/4] D,4 :: D,4 |[M:4/4] G,2 F,2 B,3 A, | G,4 F,2 _E,D, | %23
 C,4 B,,4 | F,2 G,2 F,4 | B,,4 B,,4 | F,2 D,2 _E,2 C,2 | D,4 B,,4 | C,4 D,4 | G,,4 G,4 | %30
 F,2 D,3 _E, C,2 | D,4 B,,4 | F,2 D,3 _E, C,2 | D,4 B,,4 | C,4 A,,4 | D,8 | G,,8 :| %37

